packages/core/src/svgs/tokens/branded/LOOM.svg

<svg width="24" height="24" viewBox="0 0 24 24" fill="none" xmlns="http://www.w3.org/2000/svg">
<path d="M17.0795 4.99216L14.2218 6.99197L13.1298 6.15876L17.0295 3.25049L20.5546 5.64191C20.9894 5.93394 21.3478 6.32628 21.5991 6.78585C21.8506 7.24541 21.9878 7.7587 21.9992 8.28241C22.0106 8.80613 21.8959 9.32488 21.6647 9.79493C21.4335 10.2651 21.0927 10.6726 20.671 10.9834L19.3045 12L20.4711 12.825C20.913 13.1385 21.2733 13.5533 21.5219 14.0346C21.7706 14.5159 21.9003 15.0497 21.9003 15.5916C21.9003 16.1334 21.7706 16.6672 21.5219 17.1485C21.2733 17.6298 20.913 18.0446 20.4711 18.3581L17.1047 20.7495L5.90442 12.875L4.27152 14.0745C4.04669 14.2294 3.86123 14.4349 3.72996 14.6744C3.5987 14.9138 3.52528 15.1806 3.51556 15.4535C3.50585 15.7264 3.56011 15.9978 3.67402 16.246C3.78792 16.4942 3.95831 16.7122 4.17157 16.8828L7.00457 19.1831L9.84578 17.1498L10.8961 17.9495L6.97987 20.7495L3.07963 17.7995C2.7368 17.5286 2.46106 17.1823 2.27389 16.7874C2.08671 16.3925 1.99312 15.9598 2.00039 15.523C2.00768 15.0861 2.11564 14.6567 2.31587 14.2684C2.51611 13.88 2.80323 13.543 3.1549 13.2837L4.77956 12.0752L3.56298 11.225C3.13511 10.9225 2.78521 10.5226 2.54215 10.0584C2.29908 9.59407 2.16978 9.07875 2.16491 8.55474C2.16003 8.03073 2.27971 7.51305 2.51408 7.04436C2.74846 6.57566 3.09083 6.16934 3.513 5.85888L6.9393 3.35044L18.1056 11.1668L19.6303 10.0837C19.9156 9.87972 20.1465 9.60861 20.3025 9.29442C20.4585 8.98028 20.535 8.63257 20.5251 8.28191C20.5153 7.93125 20.4194 7.5884 20.2459 7.2835C20.0724 6.9786 19.8266 6.72099 19.5303 6.53332L17.08 5.0004L17.0795 4.99216ZM17.0548 11.9082L6.82994 4.8087L3.92224 7.22541C3.72403 7.38667 3.56601 7.59182 3.46067 7.82462C3.35531 8.05744 3.30552 8.31155 3.31522 8.5669C3.32491 8.82226 3.39383 9.07185 3.51653 9.29607C3.63921 9.52012 3.81233 9.71275 4.02221 9.85846L5.95498 11.2085L9.87116 8.30852L10.98 9.13348L7.09689 12L17.2459 19.066L19.7878 17.2333C20.0585 17.0375 20.2786 16.7801 20.4299 16.4823C20.5811 16.1844 20.6592 15.8547 20.6575 15.5208C20.6559 15.1867 20.5745 14.8578 20.4203 14.5616C20.2661 14.2652 20.0434 14.01 19.7708 13.817L18.2713 12.7749L14.1882 15.8249L12.9963 14.7913L17.0465 11.9247L17.0548 11.9082Z" fill="#49BEC0"/>
</svg>

<svg xmlns="http://www.w3.org/2000/svg" width="24" height="24" fill="none" viewBox="0 0 24 24">
    <path fill="#49BEC0" d="m17.08 4.992-2.858 2-1.092-.833 3.9-2.909 3.525 2.392a3.266 3.266 0 0 1 .116 5.341L19.305 12l1.166.825a3.39 3.39 0 0 1 0 5.533l-3.366 2.392-11.2-7.875-1.633 1.2a1.75 1.75 0 0 0-.1 2.808l2.833 2.3 2.84-2.033 1.051.8-3.916 2.8-3.9-2.95a2.84 2.84 0 0 1 .075-4.516l1.625-1.209-1.217-.85a3.308 3.308 0 0 1-.05-5.366L6.939 3.35l11.167 7.817 1.524-1.083a2.14 2.14 0 0 0-.1-3.55L17.08 5zm-.025 6.916L6.83 4.808 3.922 7.226a1.65 1.65 0 0 0 .1 2.633l1.933 1.35 3.916-2.9 1.109.825L7.097 12l10.149 7.066 2.542-1.833a2.102 2.102 0 0 0-.017-3.416l-1.5-1.042-4.083 3.05-1.192-1.034 4.05-2.866z"/>
</svg>
